src/assets/apps/messaging.svg

<svg xmlns="http://www.w3.org/2000/svg" width="24" height="24" version="1">
  <path fill="#fe9700"
    d="m12 1.0001-9.545 7.1619c-0.02055 0.01335-0.03915 0.02915-0.058595 0.04395l-0.0117 0.0088v0.001c-0.2327 0.1825-0.3847 0.4635-0.3847 0.784v4c0 0.554 0.446 1 1 1h18c0.554 0 1-0.446 1-1v-4c0-0.3275-0.15848-0.6147-0.40039-0.7969l0.004-0.00585z" />
  <path fill="#fff" opacity=".1"
    d="m12 1.0001-9.545 7.1619c-0.02055 0.01335-0.03915 0.02915-0.058595 0.04395l-0.0117 0.0088v0.001c-0.2327 0.1825-0.3847 0.4635-0.3847 0.784v0.5c0-0.32025 0.15196-0.60145 0.38476-0.7842v-0.001l0.0117-0.0088c0.01945-0.0148 0.03805-0.0306 0.058595-0.04395l9.545-7.162 9.6035 7.1975-0.004 0.00585c0.243 0.182 0.401 0.469 0.401 0.7965v-0.5c0-0.3275-0.158-0.6147-0.4-0.7969l0.004-0.00585-9.6035-7.197z" />
  <rect fill="#ebebeb" width="16" height="14" x="4" y="4" rx="1" ry="1.077" />
  <path fill="#848484"
    d="m12 5c-2.2091 0-4 1.7908-4 4 0 2.209 1.7909 4 4 4h2.5s0.46875 0 0.5-0.5c0-0.5-0.5-0.5-0.5-0.5h-2.5c-1.6568 0-3-1.3431-3-3 0-1.6568 1.3431-3 3-3 1.6568 0 3 1.3431 3 3v0.5c0 0.27614-0.22386 0.5-0.5 0.5s-0.5-0.22386-0.5-0.5v-0.5c0-1.1045-0.89545-2-2-2-1.1045 0-2 0.89545-2 2 0 1.1045 0.89545 2 2 2 0.5231 0 0.99515-0.20545 1.3515-0.5342 0.285 0.3385 0.7055 0.534 1.1485 0.534 0.8284 0 1.5-0.6716 1.5-1.5v-0.5c0-2.2091-1.7908-4-4-4zm0 3c0.5523 0 1 0.44771 1 1 0 0.55228-0.44771 1-1 1-0.55228 0-1-0.44771-1-1 0-0.55228 0.44771-1 1-1z" />
  <path fill="#fec006" d="m2 9 19 13h-18c-0.554 0-1-0.446-1-1z" />
  <path fill="#fecd38" d="m21 22c0.554 0 1-0.446 1-1v-12l-19 13z" />
  <path opacity=".2"
    d="m2 21v0.5c0 0.554 0.446 1 1 1h18c0.554 0 1-0.446 1-1v-0.5c0 0.554-0.446 1-1 1h-18c-0.554 0-1-0.446-1-1z" />
</svg>

<svg width="24" height="24" viewBox="0 0 24 24" fill="none" xmlns="http://www.w3.org/2000/svg">
  <path
    d="M12 1L2.45499 8.1619C2.43444 8.17525 2.41584 8.19105 2.3964 8.20585L2.3847 8.21465C2.152 8.39715 2 8.67915 2 8.99965V12.9997C2 13.5536 2.446 13.9997 3 13.9997H21C21.554 13.9997 22 13.5536 22 12.9997V8.99965C22 8.67215 21.8415 8.38495 21.5996 8.20275L21.6036 8.1969L12 1Z"
    fill="#FE9700" />
  <path opacity="0.1"
    d="M12 1.0002L2.45499 8.1621C2.43444 8.17545 2.41584 8.19125 2.3964 8.20605L2.3847 8.21485C2.152 8.39735 2 8.67935 2 8.99985V9.49985C2 9.1796 2.15196 8.8984 2.38476 8.71565V8.71465L2.39646 8.70585C2.41591 8.69105 2.43451 8.67525 2.45505 8.6619L12.0001 1.4999L21.6036 8.6974L21.5996 8.70325C21.8426 8.88525 22.0006 9.17225 22.0006 9.49975V8.99975C22.0006 8.67225 21.8426 8.38505 21.6006 8.20285L21.6046 8.197L12.0011 1L12 1.0002Z"
    fill="white" />
  <path
    d="M19 4H5C4.44772 4 4 4.48219 4 5.077V16.923C4 17.5178 4.44772 18 5 18H19C19.5523 18 20 17.5178 20 16.923V5.077C20 4.48219 19.5523 4 19 4Z"
    fill="#EBEBEB" />
  <path d="M2 9L21 22H3C2.446 22 2 21.554 2 21V9Z" fill="#FEC006" />
  <path d="M21 22C21.554 22 22 21.554 22 21V9L3 22H21Z" fill="#FECD38" />
  <path opacity="0.2"
    d="M2 21V21.5C2 22.054 2.446 22.5 3 22.5H21C21.554 22.5 22 22.054 22 21.5V21C22 21.554 21.554 22 21 22H3C2.446 22 2 21.554 2 21Z"
    fill="black" />
  <g clip-path="url(#clip0_855_220)">
    <path fill-rule="evenodd" clip-rule="evenodd"
      d="M12.0549 7.69902C12.0058 7.61421 11.8833 7.61432 11.8344 7.69921L9.45009 11.8373C9.23953 12.2028 8.77261 12.3283 8.40718 12.1178C8.04176 11.9072 7.91621 11.4403 8.12676 11.0748L11.1747 5.78499C11.3331 5.5101 11.6266 5.34116 11.9439 5.34229C12.2616 5.34343 12.5548 5.51323 12.7139 5.78822L15.771 11.0727C15.9822 11.4378 15.8575 11.9049 15.4924 12.1161C15.1274 12.3273 14.6602 12.2026 14.4491 11.8375L12.0549 7.69902Z"
      fill="#848484" />
  </g>
  <defs>
    <clipPath id="clip0_855_220">
      <rect width="7.89091" height="7" fill="white" transform="translate(8 5.2998)" />
    </clipPath>
  </defs>
</svg>
